dist/assets/images/success.svg

<svg xmlns="http://www.w3.org/2000/svg" width="40" height="40" viewBox="0 0 40 40" fill="none">
  <path d="M36 35H20.5C17.4344 35 14.4376 34.0909 11.8887 32.3878C9.3397 30.6846 7.35303 28.2638 6.17987 25.4316C5.00672 22.5993 4.69976 19.4828 5.29784 16.4761C5.89591 13.4694 7.37214 10.7076 9.53985 8.53985C11.7076 6.37214 14.4694 4.89591 17.4761 4.29784C20.4828 3.69976 23.5993 4.00672 26.4316 5.17987C29.2638 6.35303 31.6846 8.3397 33.3878 10.8887C35.0909 13.4376 36 16.4344 36 19.5V35ZM20.5 6.58334C17.0743 6.58334 13.7889 7.9442 11.3665 10.3665C8.9442 12.7889 7.58334 16.0743 7.58334 19.5C7.58334 22.9257 8.9442 26.2111 11.3665 28.6335C13.7889 31.0558 17.0743 32.4167 20.5 32.4167H33.4167V19.5C33.4129 16.0754 32.0508 12.7922 29.6293 10.3707C27.2078 7.94917 23.9246 6.5871 20.5 6.58334ZM20.3825 25.2079L29.1542 16.5447L27.3458 14.7053L18.5548 23.3595L13.6542 18.5765L11.8458 20.4235L16.7348 25.2027C17.219 25.685 17.8746 25.9559 18.558 25.9559C19.2414 25.9559 19.897 25.685 20.3812 25.2027L20.3825 25.2079Z" fill="url(#paint0_linear_15_601)"/>
  <defs>
    <linearGradient id="paint0_linear_15_601" x1="57.6035" y1="35.1376" x2="12.0846" y2="-10.1491" gradientUnits="userSpaceOnUse">
      <stop stop-color="#D61607"/>
      <stop offset="0.489583" stop-color="#F87717"/>
      <stop offset="1" stop-color="#FECE24"/>
    </linearGradient>
  </defs>
</svg>

<svg xmlns="http://www.w3.org/2000/svg" width="40" height="40" fill="none"><path d="M36 35H20.5A15.5 15.5 0 1 1 36 19.5V35ZM20.5 6.583a12.917 12.917 0 0 0 0 25.834h12.917V19.5A12.931 12.931 0 0 0 20.5 6.583Zm-.117 18.625 8.771-8.663-1.808-1.84-8.791 8.655-4.9-4.784-1.81 1.848 4.89 4.779a2.584 2.584 0 0 0 3.646 0l.002.005Z" fill="url(#a)"/><defs><linearGradient id="a" x1="57.603" y1="35.138" x2="12.085" y2="-10.149" gradientUnits="userSpaceOnUse"><stop stop-color="#D61607"/><stop offset=".49" stop-color="#F87717"/><stop offset="1" stop-color="#FECE24"/></linearGradient></defs></svg>
